X:107
T:Jackey Layton
Z:Jack Campin, http://www.campin.me.uk/
S:Northumbrian Minstrelsy
M:C
L:1/8
K:G
G/A/B/c/ dg       dB```````Bg      |dB```````Bg Td2 TB2 |\
G/A/B/c/ dg       dB```````Bg      |gA```````AB Tc2  BA |
G/A/B/c/ dg       dB```````Bg      |dB```````Bg Td2 TB2 |\
G/A/B/c/ d/e/g/e/ d/c/B/d/ B/c/d/f/|gA```````AB Tc2  BA:|
G/A/B/c/ dB       ec```````dB      |G/A/B/c/ dG Td2  cB |\
G/A/B/c/ dB       ec```````dB      |eA```````AB Tc2  BA |
G/A/B/c/ dB       ec```````dB      |G/A/B/c/ dB Tc2  BA |\
G/A/B/c/ d/c/B/d/ e/d/c/e/ d/c/B/d/|eA```````AB Tc2  BA|]

